X:45
M:4/4
L:1/4
Q:1/2=105
K:G
d | B>AGF | G2D2 | F>GAF | A/B/ccd |
e/f/ | g/e/c/e/ f/d/B/d/ | f2d2 | c/A/F/A/ c/A/F/A/ | c2A2 |

